svgs/sharp-solid/basket-shopping-minus.svg

<svg xmlns="http://www.w3.org/2000/svg" viewBox="0 0 576 512"><!--! Font Awesome Pro 6.6.0 by @fontawesome - https://fontawesome.com License - https://fontawesome.com/license (Commercial License) Copyright 2024 Fonticons, Inc. --><path d="M245.3 51.1l11.1-21.3L213.8 7.6 202.7 28.9 117.6 192 0 192l0 64 32 0L96 512l384 0 64-256 32 0 0-64-117.6 0L373.3 28.9 362.2 7.6 319.6 29.8l11.1 21.3L404.2 192l-232.5 0L245.3 51.1zM208 328l160 0 24 0 0 48-24 0-160 0-24 0 0-48 24 0z"/></svg>

<svg xmlns="http://www.w3.org/2000/svg" viewBox="0 0 576 512"><!--! Font Awesome Pro 6.5.2 by @fontawesome - https://fontawesome.com License - https://fontawesome.com/license (Commercial License) Copyright 2024 Fonticons, Inc. --><path d="M245.3 51.1l11.1-21.3L213.8 7.6 202.7 28.9 117.6 192H0v64l32 0L96 512H480l64-256 32 0V192H458.4L373.3 28.9 362.2 7.6 319.6 29.8l11.1 21.3L404.2 192H171.8L245.3 51.1zM208 328H368h24v48H368 208 184V328h24z"/></svg>
